images/50412141.svg

<?xml version="1.0" encoding="UTF-8"?>
<svg xmlns="http://www.w3.org/2000/svg" xmlns:xlink="http://www.w3.org/1999/xlink" width="300pt" height="300pt" viewBox="0 0 300 300" version="1.1">
<defs>
<g>
<symbol overflow="visible" id="glyph0-0">
<path style="stroke:none;" d="M 0.453125 1.59375 L 0.453125 -6.34375 L 4.953125 -6.34375 L 4.953125 1.59375 Z M 0.953125 1.09375 L 4.453125 1.09375 L 4.453125 -5.84375 L 0.953125 -5.84375 Z M 0.953125 1.09375 "/>
</symbol>
<symbol overflow="visible" id="glyph0-1">
<path style="stroke:none;" d="M 3.546875 -5.953125 C 2.898438 -5.953125 2.382812 -5.710938 2 -5.234375 C 1.625 -4.753906 1.4375 -4.101562 1.4375 -3.28125 C 1.4375 -2.445312 1.625 -1.789062 2 -1.3125 C 2.382812 -0.832031 2.898438 -0.59375 3.546875 -0.59375 C 4.191406 -0.59375 4.703125 -0.832031 5.078125 -1.3125 C 5.453125 -1.789062 5.640625 -2.445312 5.640625 -3.28125 C 5.640625 -4.101562 5.453125 -4.753906 5.078125 -5.234375 C 4.703125 -5.710938 4.191406 -5.953125 3.546875 -5.953125 Z M 3.546875 -6.6875 C 4.460938 -6.6875 5.195312 -6.375 5.75 -5.75 C 6.300781 -5.132812 6.578125 -4.3125 6.578125 -3.28125 C 6.578125 -2.238281 6.300781 -1.410156 5.75 -0.796875 C 5.195312 -0.179688 4.460938 0.125 3.546875 0.125 C 2.617188 0.125 1.878906 -0.179688 1.328125 -0.796875 C 0.773438 -1.410156 0.5 -2.238281 0.5 -3.28125 C 0.5 -4.3125 0.773438 -5.132812 1.328125 -5.75 C 1.878906 -6.375 2.617188 -6.6875 3.546875 -6.6875 Z M 3.546875 -6.6875 "/>
</symbol>
<symbol overflow="visible" id="glyph0-2">
<path style="stroke:none;" d="M 0.890625 -6.5625 L 2.078125 -6.5625 L 4.984375 -1.078125 L 4.984375 -6.5625 L 5.84375 -6.5625 L 5.84375 0 L 4.65625 0 L 1.75 -5.484375 L 1.75 0 L 0.890625 0 Z M 0.890625 -6.5625 "/>
</symbol>
<symbol overflow="visible" id="glyph0-3">
<path style="stroke:none;" d="M 0.890625 -6.5625 L 1.765625 -6.5625 L 1.765625 -3.875 L 5 -3.875 L 5 -6.5625 L 5.890625 -6.5625 L 5.890625 0 L 5 0 L 5 -3.125 L 1.765625 -3.125 L 1.765625 0 L 0.890625 0 Z M 0.890625 -6.5625 "/>
</symbol>
</g>
</defs>
<g id="surface8481">
<rect x="0" y="0" width="300" height="300" style="fill:rgb(100%,100%,100%);fill-opacity:1;stroke:none;"/>
<path style="fill:none;stroke-width:1.2;stroke-linecap:butt;stroke-linejoin:miter;stroke:rgb(100%,0%,0%);stroke-opacity:1;stroke-miterlimit:10;" d="M 41.226562 136.726562 L 44.628906 147.539062 "/>
<path style="fill:none;stroke-width:1.2;stroke-linecap:butt;stroke-linejoin:miter;stroke:rgb(0%,0%,0%);stroke-opacity:1;stroke-miterlimit:10;" d="M 44.628906 147.539062 L 48.03125 158.351562 "/>
<path style="fill:none;stroke-width:1.2;stroke-linecap:butt;stroke-linejoin:miter;stroke:rgb(100%,0%,0%);stroke-opacity:1;stroke-miterlimit:10;" d="M 46.316406 135.125 L 49.71875 145.9375 "/>
<path style="fill:none;stroke-width:1.2;stroke-linecap:butt;stroke-linejoin:miter;stroke:rgb(0%,0%,0%);stroke-opacity:1;stroke-miterlimit:10;" d="M 49.71875 145.9375 L 53.121094 156.75 "/>
<path style=" stroke:none;fill-rule:nonzero;fill:rgb(100%,100%,100%);fill-opacity:1;" d="M 35.769531 130.425781 L 43.769531 130.425781 L 43.769531 141.425781 L 35.769531 141.425781 Z M 35.769531 130.425781 "/>
<g style="fill:rgb(100%,0%,0%);fill-opacity:1;">
  <use xlink:href="#glyph0-1" x="35.769531" y="139.088867"/>
</g>
<path style="fill:none;stroke-width:1.2;stroke-linecap:butt;stroke-linejoin:miter;stroke:rgb(0%,0%,0%);stroke-opacity:1;stroke-miterlimit:10;" d="M 50.578125 157.550781 L 61.640625 160.011719 "/>
<path style="fill:none;stroke-width:1.2;stroke-linecap:butt;stroke-linejoin:miter;stroke:rgb(0%,0%,100%);stroke-opacity:1;stroke-miterlimit:10;" d="M 61.640625 160.011719 L 72.707031 162.472656 "/>
<path style="fill:none;stroke-width:1.2;stroke-linecap:butt;stroke-linejoin:miter;stroke:rgb(0%,0%,0%);stroke-opacity:1;stroke-miterlimit:10;" d="M 35.25 174.257812 L 50.578125 157.550781 "/>
<path style="fill:none;stroke-width:1.2;stroke-linecap:butt;stroke-linejoin:miter;stroke:rgb(0%,0%,100%);stroke-opacity:1;stroke-miterlimit:10;" d="M 72.707031 162.472656 L 76.109375 173.285156 "/>
<path style="fill:none;stroke-width:1.2;stroke-linecap:butt;stroke-linejoin:miter;stroke:rgb(0%,0%,0%);stroke-opacity:1;stroke-miterlimit:10;" d="M 76.109375 173.285156 L 79.511719 184.097656 "/>
<path style="fill:none;stroke-width:1.2;stroke-linecap:butt;stroke-linejoin:miter;stroke:rgb(0%,0%,100%);stroke-opacity:1;stroke-miterlimit:10;" d="M 72.707031 162.472656 L 80.371094 154.117188 "/>
<path style="fill:none;stroke-width:1.2;stroke-linecap:butt;stroke-linejoin:miter;stroke:rgb(0%,0%,0%);stroke-opacity:1;stroke-miterlimit:10;" d="M 80.371094 154.117188 L 88.035156 145.765625 "/>
<path style=" stroke:none;fill-rule:nonzero;fill:rgb(100%,100%,100%);fill-opacity:1;" d="M 69.707031 156.972656 L 76.707031 156.972656 L 76.707031 167.972656 L 69.707031 167.972656 Z M 69.707031 156.972656 "/>
<g style="fill:rgb(0%,0%,100%);fill-opacity:1;">
  <use xlink:href="#glyph0-2" x="69.707031" y="165.635742"/>
</g>
<path style="fill:none;stroke-width:1.2;stroke-linecap:butt;stroke-linejoin:miter;stroke:rgb(0%,0%,0%);stroke-opacity:1;stroke-miterlimit:10;" d="M 79.511719 184.097656 L 64.1875 200.804688 "/>
<path style="fill:none;stroke-width:1.2;stroke-linecap:butt;stroke-linejoin:miter;stroke:rgb(0%,0%,0%);stroke-opacity:1;stroke-miterlimit:10;" d="M 64.1875 200.804688 L 42.054688 195.882812 "/>
<path style="fill:none;stroke-width:1.2;stroke-linecap:butt;stroke-linejoin:miter;stroke:rgb(0%,0%,0%);stroke-opacity:1;stroke-miterlimit:10;" d="M 42.054688 195.882812 L 35.25 174.257812 "/>
<path style="fill:none;stroke-width:1.2;stroke-linecap:butt;stroke-linejoin:miter;stroke:rgb(0%,0%,0%);stroke-opacity:1;stroke-miterlimit:10;" d="M 88.035156 145.765625 L 110.167969 150.683594 "/>
<path style="fill:none;stroke-width:1.2;stroke-linecap:butt;stroke-linejoin:miter;stroke:rgb(0%,0%,0%);stroke-opacity:1;stroke-miterlimit:10;" d="M 91.40625 141.046875 L 109.109375 144.984375 "/>
<path style="fill:none;stroke-width:1.2;stroke-linecap:butt;stroke-linejoin:miter;stroke:rgb(0%,0%,0%);stroke-opacity:1;stroke-miterlimit:10;" d="M 81.230469 124.136719 L 88.035156 145.765625 "/>
<path style="fill:none;stroke-width:1.2;stroke-linecap:butt;stroke-linejoin:miter;stroke:rgb(0%,0%,0%);stroke-opacity:1;stroke-miterlimit:10;" d="M 110.167969 150.683594 L 125.492188 133.976562 "/>
<path style="fill:none;stroke-width:1.2;stroke-linecap:butt;stroke-linejoin:miter;stroke:rgb(0%,0%,0%);stroke-opacity:1;stroke-miterlimit:10;" d="M 125.492188 133.976562 L 118.6875 112.351562 "/>
<path style="fill:none;stroke-width:1.2;stroke-linecap:butt;stroke-linejoin:miter;stroke:rgb(0%,0%,0%);stroke-opacity:1;stroke-miterlimit:10;" d="M 129.902344 130.214844 L 124.457031 112.914062 "/>
<path style="fill:none;stroke-width:1.2;stroke-linecap:butt;stroke-linejoin:miter;stroke:rgb(0%,0%,0%);stroke-opacity:1;stroke-miterlimit:10;" d="M 148.164062 134.1875 L 125.492188 133.976562 "/>
<path style="fill:none;stroke-width:1.2;stroke-linecap:butt;stroke-linejoin:miter;stroke:rgb(0%,0%,0%);stroke-opacity:1;stroke-miterlimit:10;" d="M 118.6875 112.351562 L 127.921875 105.773438 "/>
<path style="fill:none;stroke-width:1.2;stroke-linecap:butt;stroke-linejoin:miter;stroke:rgb(0%,0%,100%);stroke-opacity:1;stroke-miterlimit:10;" d="M 127.921875 105.773438 L 137.152344 99.195312 "/>
<path style="fill:none;stroke-width:1.2;stroke-linecap:butt;stroke-linejoin:miter;stroke:rgb(0%,0%,0%);stroke-opacity:1;stroke-miterlimit:10;" d="M 118.6875 112.351562 L 96.554688 107.429688 "/>
<path style="fill:none;stroke-width:1.2;stroke-linecap:butt;stroke-linejoin:miter;stroke:rgb(0%,0%,100%);stroke-opacity:1;stroke-miterlimit:10;" d="M 137.152344 99.195312 L 155.371094 112.691406 "/>
<path style=" stroke:none;fill-rule:nonzero;fill:rgb(100%,100%,100%);fill-opacity:1;" d="M 130.152344 93.695312 L 144.152344 93.695312 L 144.152344 104.695312 L 130.152344 104.695312 Z M 130.152344 93.695312 "/>
<g style="fill:rgb(0%,0%,100%);fill-opacity:1;">
  <use xlink:href="#glyph0-2" x="130.152344" y="102.358398"/>
  <use xlink:href="#glyph0-3" x="137.129883" y="102.358398"/>
</g>
<path style="fill:none;stroke-width:1.2;stroke-linecap:butt;stroke-linejoin:miter;stroke:rgb(0%,0%,100%);stroke-opacity:1;stroke-miterlimit:10;" d="M 155.371094 112.691406 L 151.765625 123.441406 "/>
<path style="fill:none;stroke-width:1.2;stroke-linecap:butt;stroke-linejoin:miter;stroke:rgb(0%,0%,0%);stroke-opacity:1;stroke-miterlimit:10;" d="M 151.765625 123.441406 L 148.164062 134.1875 "/>
<path style="fill:none;stroke-width:1.2;stroke-linecap:butt;stroke-linejoin:miter;stroke:rgb(0%,0%,100%);stroke-opacity:1;stroke-miterlimit:10;" d="M 149.59375 113.144531 L 146.710938 121.746094 "/>
<path style="fill:none;stroke-width:1.2;stroke-linecap:butt;stroke-linejoin:miter;stroke:rgb(0%,0%,0%);stroke-opacity:1;stroke-miterlimit:10;" d="M 146.710938 121.746094 L 143.828125 130.34375 "/>
<path style=" stroke:none;fill-rule:nonzero;fill:rgb(100%,100%,100%);fill-opacity:1;" d="M 152.371094 107.191406 L 159.371094 107.191406 L 159.371094 118.191406 L 152.371094 118.191406 Z M 152.371094 107.191406 "/>
<g style="fill:rgb(0%,0%,100%);fill-opacity:1;">
  <use xlink:href="#glyph0-2" x="152.371094" y="115.854492"/>
</g>
<path style="fill:none;stroke-width:1.2;stroke-linecap:butt;stroke-linejoin:miter;stroke:rgb(0%,0%,0%);stroke-opacity:1;stroke-miterlimit:10;" d="M 148.164062 134.1875 L 154.742188 143.421875 "/>
<path style="fill:none;stroke-width:1.2;stroke-linecap:butt;stroke-linejoin:miter;stroke:rgb(0%,0%,100%);stroke-opacity:1;stroke-miterlimit:10;" d="M 154.742188 143.421875 L 161.320312 152.652344 "/>
<path style="fill:none;stroke-width:1.2;stroke-linecap:butt;stroke-linejoin:miter;stroke:rgb(0%,0%,100%);stroke-opacity:1;stroke-miterlimit:10;" d="M 161.320312 152.652344 L 172.605469 151.574219 "/>
<path style="fill:none;stroke-width:1.2;stroke-linecap:butt;stroke-linejoin:miter;stroke:rgb(0%,0%,0%);stroke-opacity:1;stroke-miterlimit:10;" d="M 172.605469 151.574219 L 183.886719 150.492188 "/>
<path style=" stroke:none;fill-rule:nonzero;fill:rgb(100%,100%,100%);fill-opacity:1;" d="M 154.320312 147.152344 L 168.320312 147.152344 L 168.320312 158.152344 L 154.320312 158.152344 Z M 154.320312 147.152344 "/>
<g style="fill:rgb(0%,0%,100%);fill-opacity:1;">
  <use xlink:href="#glyph0-2" x="154.320312" y="155.81543"/>
  <use xlink:href="#glyph0-3" x="161.297852" y="155.81543"/>
</g>
<path style="fill:none;stroke-width:1.2;stroke-linecap:butt;stroke-linejoin:miter;stroke:rgb(0%,0%,0%);stroke-opacity:1;stroke-miterlimit:10;" d="M 186.316406 151.601562 L 191.023438 141.289062 "/>
<path style="fill:none;stroke-width:1.2;stroke-linecap:butt;stroke-linejoin:miter;stroke:rgb(100%,0%,0%);stroke-opacity:1;stroke-miterlimit:10;" d="M 191.023438 141.289062 L 195.730469 130.976562 "/>
<path style="fill:none;stroke-width:1.2;stroke-linecap:butt;stroke-linejoin:miter;stroke:rgb(0%,0%,0%);stroke-opacity:1;stroke-miterlimit:10;" d="M 181.460938 149.386719 L 186.167969 139.074219 "/>
<path style="fill:none;stroke-width:1.2;stroke-linecap:butt;stroke-linejoin:miter;stroke:rgb(100%,0%,0%);stroke-opacity:1;stroke-miterlimit:10;" d="M 186.167969 139.074219 L 190.875 128.761719 "/>
<path style="fill:none;stroke-width:1.2;stroke-linecap:butt;stroke-linejoin:miter;stroke:rgb(0%,0%,0%);stroke-opacity:1;stroke-miterlimit:10;" d="M 183.886719 150.492188 L 197.042969 168.957031 "/>
<path style=" stroke:none;fill-rule:nonzero;fill:rgb(100%,100%,100%);fill-opacity:1;" d="M 189.300781 124.367188 L 197.300781 124.367188 L 197.300781 135.367188 L 189.300781 135.367188 Z M 189.300781 124.367188 "/>
<g style="fill:rgb(100%,0%,0%);fill-opacity:1;">
  <use xlink:href="#glyph0-1" x="189.300781" y="133.030273"/>
</g>
<path style="fill:none;stroke-width:1.2;stroke-linecap:butt;stroke-linejoin:miter;stroke:rgb(0%,0%,0%);stroke-opacity:1;stroke-miterlimit:10;" d="M 197.042969 168.957031 L 219.613281 166.796875 "/>
<path style="fill:none;stroke-width:1.2;stroke-linecap:butt;stroke-linejoin:miter;stroke:rgb(0%,0%,0%);stroke-opacity:1;stroke-miterlimit:10;" d="M 219.613281 166.796875 L 232.765625 185.265625 "/>
<path style="fill:none;stroke-width:1.2;stroke-linecap:butt;stroke-linejoin:miter;stroke:rgb(0%,0%,0%);stroke-opacity:1;stroke-miterlimit:10;" d="M 225.273438 165.550781 L 235.796875 180.320312 "/>
<path style="fill:none;stroke-width:1.2;stroke-linecap:butt;stroke-linejoin:miter;stroke:rgb(0%,0%,0%);stroke-opacity:1;stroke-miterlimit:10;" d="M 229.027344 146.171875 L 219.613281 166.796875 "/>
<path style="fill:none;stroke-width:1.2;stroke-linecap:butt;stroke-linejoin:miter;stroke:rgb(0%,0%,0%);stroke-opacity:1;stroke-miterlimit:10;" d="M 232.765625 185.265625 L 255.335938 183.105469 "/>
<path style="fill:none;stroke-width:1.2;stroke-linecap:butt;stroke-linejoin:miter;stroke:rgb(0%,0%,0%);stroke-opacity:1;stroke-miterlimit:10;" d="M 255.335938 183.105469 L 264.75 162.480469 "/>
<path style="fill:none;stroke-width:1.2;stroke-linecap:butt;stroke-linejoin:miter;stroke:rgb(0%,0%,0%);stroke-opacity:1;stroke-miterlimit:10;" d="M 251.425781 178.828125 L 258.957031 162.324219 "/>
<path style="fill:none;stroke-width:1.2;stroke-linecap:butt;stroke-linejoin:miter;stroke:rgb(0%,0%,0%);stroke-opacity:1;stroke-miterlimit:10;" d="M 264.75 162.480469 L 251.59375 144.011719 "/>
<path style="fill:none;stroke-width:1.2;stroke-linecap:butt;stroke-linejoin:miter;stroke:rgb(0%,0%,0%);stroke-opacity:1;stroke-miterlimit:10;" d="M 251.59375 144.011719 L 229.027344 146.171875 "/>
<path style="fill:none;stroke-width:1.2;stroke-linecap:butt;stroke-linejoin:miter;stroke:rgb(0%,0%,0%);stroke-opacity:1;stroke-miterlimit:10;" d="M 249.847656 149.539062 L 231.792969 151.269531 "/>
<path style="fill:none;stroke-width:1.2;stroke-linecap:butt;stroke-linejoin:miter;stroke:rgb(0%,0%,0%);stroke-opacity:1;stroke-miterlimit:10;" d="M 96.554688 107.429688 L 81.230469 124.136719 "/>
<path style="fill:none;stroke-width:1.2;stroke-linecap:butt;stroke-linejoin:miter;stroke:rgb(0%,0%,0%);stroke-opacity:1;stroke-miterlimit:10;" d="M 98.953125 112.707031 L 86.695312 126.074219 "/>
</g>
</svg>

<svg xmlns="http://www.w3.org/2000/svg" xmlns:xlink="http://www.w3.org/1999/xlink" width="300pt" height="300pt" viewBox="0 0 300 300"><defs><symbol overflow="visible"><path d="M.453 1.594v-7.938h4.5v7.938zm.5-.5h3.5v-6.938h-3.5zm0 0"/></symbol><symbol overflow="visible" id="a"><path d="M3.547-5.953c-.65 0-1.164.242-1.547.72-.375.48-.563 1.13-.563 1.952 0 .835.188 1.49.563 1.967.383.48.898.72 1.547.72.644 0 1.156-.24 1.53-.72.376-.476.564-1.132.564-1.968 0-.822-.187-1.474-.562-1.954-.375-.477-.887-.72-1.53-.72zm0-.734c.914 0 1.648.312 2.203.937.55.617.828 1.438.828 2.47 0 1.042-.277 1.87-.828 2.483-.555.617-1.29.922-2.203.922-.93 0-1.668-.305-2.22-.922C.774-1.41.5-2.237.5-3.28c0-1.033.273-1.853.828-2.47.55-.625 1.29-.938 2.22-.938zm0 0"/></symbol><symbol overflow="visible" id="b"><path d="M.89-6.563H2.08l2.906 5.485v-5.484h.86V0H4.656L1.75-5.484V0H.89zm0 0"/></symbol><symbol overflow="visible" id="c"><path d="M.89-6.563h.876v2.688H5v-2.688h.89V0H5v-3.125H1.766V0H.89zm0 0"/></symbol></defs><g><path fill="#fff" d="M0 0h300v300H0z"/><path d="M41.227 136.727l3.402 10.812" stroke-width="1.2" stroke="#f00" stroke-miterlimit="10" fill="none"/><path d="M44.63 147.54l3.4 10.812" stroke-width="1.2" stroke="#000" stroke-miterlimit="10" fill="none"/><path d="M46.316 135.125l3.403 10.813" stroke-width="1.2" stroke="#f00" stroke-miterlimit="10" fill="none"/><path d="M49.72 145.938l3.4 10.812" stroke-width="1.2" stroke="#000" stroke-miterlimit="10" fill="none"/><path d="M35.77 130.426h8v11h-8zm0 0" fill="#fff"/><use xlink:href="#a" x="35.77" y="139.089" fill="#f00"/><path d="M50.578 157.55l11.063 2.462" stroke-width="1.2" stroke="#000" stroke-miterlimit="10" fill="none"/><path d="M61.64 160.012l11.067 2.46" stroke-width="1.2" stroke="#00f" stroke-miterlimit="10" fill="none"/><path d="M35.25 174.258l15.328-16.707" stroke-width="1.2" stroke="#000" stroke-miterlimit="10" fill="none"/><path d="M72.707 162.473l3.402 10.812" stroke-width="1.2" stroke="#00f" stroke-miterlimit="10" fill="none"/><path d="M76.11 173.285l3.402 10.813" stroke-width="1.2" stroke="#000" stroke-miterlimit="10" fill="none"/><path d="M72.707 162.473l7.664-8.356" stroke-width="1.2" stroke="#00f" stroke-miterlimit="10" fill="none"/><path d="M80.37 154.117l7.665-8.35" stroke-width="1.2" stroke="#000" stroke-miterlimit="10" fill="none"/><path d="M69.707 156.973h7v11h-7zm0 0" fill="#fff"/><use xlink:href="#b" x="69.707" y="165.636" fill="#00f"/><path d="M79.512 184.098l-15.325 16.707M64.188 200.805l-22.133-4.922M42.055 195.883l-6.805-21.625M88.035 145.766l22.133 4.918M91.406 141.047l17.703 3.937M81.23 124.137l6.805 21.63M110.168 150.684l15.324-16.707M125.492 133.977l-6.805-21.625M129.902 130.215l-5.445-17.3M148.164 134.188l-22.672-.21M118.688 112.352l9.234-6.58" stroke-width="1.2" stroke="#000" stroke-miterlimit="10" fill="none"/><path d="M127.922 105.773l9.23-6.578" stroke-width="1.2" stroke="#00f" stroke-miterlimit="10" fill="none"/><path d="M118.688 112.352l-22.133-4.922" stroke-width="1.2" stroke="#000" stroke-miterlimit="10" fill="none"/><path d="M137.152 99.195l18.22 13.496" stroke-width="1.2" stroke="#00f" stroke-miterlimit="10" fill="none"/><path d="M130.152 93.695h14v11h-14zm0 0" fill="#fff"/><g fill="#00f"><use xlink:href="#b" x="130.152" y="102.358"/><use xlink:href="#c" x="137.13" y="102.358"/></g><path d="M155.37 112.69l-3.604 10.75" stroke-width="1.2" stroke="#00f" stroke-miterlimit="10" fill="none"/><path d="M151.766 123.44l-3.602 10.748" stroke-width="1.2" stroke="#000" stroke-miterlimit="10" fill="none"/><path d="M149.594 113.145l-2.883 8.6" stroke-width="1.2" stroke="#00f" stroke-miterlimit="10" fill="none"/><path d="M146.71 121.746l-2.882 8.598" stroke-width="1.2" stroke="#000" stroke-miterlimit="10" fill="none"/><path d="M152.37 107.19h7v11h-7zm0 0" fill="#fff"/><use xlink:href="#b" x="152.371" y="115.854" fill="#00f"/><path d="M148.164 134.188l6.578 9.234" stroke-width="1.2" stroke="#000" stroke-miterlimit="10" fill="none"/><path d="M154.742 143.422l6.578 9.23M161.32 152.652l11.285-1.078" stroke-width="1.2" stroke="#00f" stroke-miterlimit="10" fill="none"/><path d="M172.605 151.574l11.282-1.082" stroke-width="1.2" stroke="#000" stroke-miterlimit="10" fill="none"/><path d="M154.32 147.152h14v11h-14zm0 0" fill="#fff"/><g fill="#00f"><use xlink:href="#b" x="154.32" y="155.815"/><use xlink:href="#c" x="161.298" y="155.815"/></g><path d="M186.316 151.602l4.707-10.313" stroke-width="1.2" stroke="#000" stroke-miterlimit="10" fill="none"/><path d="M191.023 141.29l4.707-10.313" stroke-width="1.2" stroke="#f00" stroke-miterlimit="10" fill="none"/><path d="M181.46 149.387l4.708-10.313" stroke-width="1.2" stroke="#000" stroke-miterlimit="10" fill="none"/><path d="M186.168 139.074l4.707-10.312" stroke-width="1.2" stroke="#f00" stroke-miterlimit="10" fill="none"/><path d="M183.887 150.492l13.156 18.465" stroke-width="1.2" stroke="#000" stroke-miterlimit="10" fill="none"/><path d="M189.3 124.367h8v11h-8zm0 0" fill="#fff"/><use xlink:href="#a" x="189.301" y="133.03" fill="#f00"/><path d="M197.043 168.957l22.57-2.16M219.613 166.797l13.153 18.47M225.273 165.55l10.524 14.77M229.027 146.172l-9.414 20.625M232.766 185.266l22.57-2.16M255.336 183.105l9.414-20.625M251.426 178.828l7.53-16.504M264.75 162.48l-13.156-18.468M251.594 144.012l-22.567 2.16M249.848 149.54l-18.055 1.73M96.555 107.43L81.23 124.137M98.953 112.707l-12.258 13.367" stroke-width="1.2" stroke="#000" stroke-miterlimit="10" fill="none"/></g></svg>
